src/components/00-materials/images-raw/Site Foreman.svg

<svg width="96" height="96" viewBox="0 0 96 96" fill="none" xmlns="http://www.w3.org/2000/svg">
<path d="M34.63 31.1201V41.4601C34.63 45.0061 36.0386 48.4068 38.546 50.9141C41.0533 53.4215 44.4541 54.8301 48 54.8301C51.5459 54.8301 54.9467 53.4215 57.454 50.9141C59.9614 48.4068 61.37 45.0061 61.37 41.4601V31.1201" stroke="#00008F" stroke-width="2" stroke-miterlimit="10"/>
<path d="M57.34 51.3999V60.2199H63.85C63.85 60.2199 79.71 60.2199 79.71 75.6099V83.2599C79.71 83.2599 79.71 90.9999 48 90.9999C16.29 90.9999 16.29 83.2599 16.29 83.2599V75.6099C16.29 60.2199 32.15 60.2199 32.15 60.2199H38.66V51.3999" stroke="#00008F" stroke-width="2" stroke-miterlimit="10"/>
<path d="M57.34 60.22C57.34 60.22 56.83 66 48 66C39.17 66 38.66 60.19 38.66 60.19M65.36 31.12H30.64C29.54 31.12 30.64 30.22 30.64 29.12V26.77C30.64 26.2396 30.8507 25.7309 31.2258 25.3558C31.6009 24.9807 32.1096 24.77 32.64 24.77H63.34C63.8704 24.77 64.3792 24.9807 64.7542 25.3558C65.1293 25.7309 65.34 26.2396 65.34 26.77V29.12C65.34 30.22 66.46 31.12 65.36 31.12Z" stroke="#00008F" stroke-width="2" stroke-miterlimit="10"/>
<path d="M32.5701 24.7699H42.9001V8.16992C36.8901 10.2499 32.5701 16.0799 32.5701 24.7699V24.7699ZM53.1001 8.16992V24.7699H63.4301C63.4301 16.0799 59.1101 10.2499 53.1001 8.16992V8.16992Z" stroke="#00008F" stroke-width="2" stroke-miterlimit="10"/>
<path d="M42.9 24.77V8.17C42.8528 7.38857 43.1129 6.61966 43.6249 6.02739C44.1368 5.43512 44.86 5.06642 45.64 5H50.36C51.14 5.06642 51.8632 5.43512 52.3751 6.02739C52.887 6.61966 53.1472 7.38857 53.1 8.17V24.77" stroke="#00008F" stroke-width="2" stroke-miterlimit="10"/>
<path d="M33.43 85.89C34.5732 85.89 35.5 84.9632 35.5 83.82C35.5 82.6768 34.5732 81.75 33.43 81.75C32.2868 81.75 31.36 82.6768 31.36 83.82C31.36 84.9632 32.2868 85.89 33.43 85.89Z" stroke="#00008F" stroke-width="2" stroke-miterlimit="10"/>
<path d="M62.57 85.89C63.7132 85.89 64.64 84.9632 64.64 83.82C64.64 82.6768 63.7132 81.75 62.57 81.75C61.4268 81.75 60.5 82.6768 60.5 83.82C60.5 84.9632 61.4268 85.89 62.57 85.89Z" stroke="#00008F" stroke-width="2" stroke-miterlimit="10"/>
<path d="M63.4601 60.3301V73.1901C63.4601 73.9999 63.139 74.7767 62.5673 75.3503C61.9956 75.9239 61.2199 76.2474 60.4101 76.2501H35.7601C34.9589 76.2344 34.1959 75.9051 33.635 75.3329C33.074 74.7607 32.7599 73.9914 32.7601 73.1901V60.3301M22.5601 88.2401C22.866 85.2836 24.0699 82.4918 26.0101 80.2401C26.0101 80.2401 27.5201 78.4801 27.5001 73.6701V60.7301M73.4401 88.2401C73.1342 85.2836 71.9302 82.4918 69.9901 80.2401C69.9901 80.2401 68.7001 78.4801 68.7201 73.6701V60.7301" stroke="#00008F" stroke-width="2" stroke-miterlimit="10"/>
</svg>

<svg width="96" height="96" viewBox="0 0 96 96" fill="none" xmlns="http://www.w3.org/2000/svg"><path d="M34.63 31.12v10.34a13.37 13.37 0 1026.74 0V31.12" stroke="#00008F" stroke-width="2" stroke-miterlimit="10"/><path d="M57.34 51.4v8.82h6.51s15.86 0 15.86 15.39v7.65S79.71 91 48 91s-31.71-7.74-31.71-7.74v-7.65c0-15.39 15.86-15.39 15.86-15.39h6.51V51.4" stroke="#00008F" stroke-width="2" stroke-miterlimit="10"/><path d="M57.34 60.22S56.83 66 48 66s-9.34-5.81-9.34-5.81m26.7-29.07H30.64c-1.1 0 0-.9 0-2v-2.35a2 2 0 012-2h30.7a2 2 0 012 2v2.35c0 1.1 1.12 2 .02 2z" stroke="#00008F" stroke-width="2" stroke-miterlimit="10"/><path d="M32.57 24.77H42.9V8.17c-6.01 2.08-10.33 7.91-10.33 16.6v0zM53.1 8.17v16.6h10.33c0-8.69-4.32-14.52-10.33-16.6v0z" stroke="#00008F" stroke-width="2" stroke-miterlimit="10"/><path d="M42.9 24.77V8.17A3 3 0 0145.64 5h4.72a3 3 0 012.74 3.17v16.6M33.43 85.89a2.07 2.07 0 100-4.14 2.07 2.07 0 000 4.14zM62.57 85.89a2.07 2.07 0 100-4.14 2.07 2.07 0 000 4.14zM63.46 60.33v12.86a3.06 3.06 0 01-3.05 3.06H35.76a3.06 3.06 0 01-3-3.06V60.33m-10.2 27.91a14.55 14.55 0 013.45-8s1.51-1.76 1.49-6.57V60.73m45.94 27.51a14.55 14.55 0 00-3.45-8s-1.29-1.76-1.27-6.57V60.73" stroke="#00008F" stroke-width="2" stroke-miterlimit="10"/></svg>
